X:032
T:Life let us Cherish TS.032
M:6/8
L:1/8
Q:3/8=60
S:Thomas Sands’ MS,1810,Lincolnshire
R:air
O:England;Lincolnshire
Z:vmp.Ruairidh Greig, 2011
K:G
{c}”tr”B3″as written” (c/B/c)|d2g{a}g3z|HG3(AGA)|(BcB)”tr”A2z|
{c}”tr”B3 (c/B/c)|d2g{a}g3z|{c}B3(A/G/A)|G3:|
|:d2|d2BABc|d2BG2d|d2B ABc|d2BG2d|
e2cg2g|d2Bg2-g|ded dcB|{c}”tr”B3 {B}”tr”A3|
{c}”tr”B3(cB) .c|d2gg2z|HG3(AGA)|(BcB){B}”tr”A2z|
{c}B3(cBc)|d2g {a}”tr”g3z|{c}”tr”B2 AGA|G3|]

